X: 207
T: Wunu guandeng
L: 1/16
M: 2/4
K: D
d2 d eB4 [I:setbarnb 1]| 
F E F2A4 | 
d2> d2 B d B A | 
F2 E FA4 | 
A2> B2 A2 B2 | 
d6B d | 
A8 | 
D2> E2 F2 F2 | 
z2 E FE4 | 
F2> E2 F2 F2 | 
d2 B dA4 |]

@@@ Tune index: 9081
